resources/svg/buildings-bold.svg

<svg xmlns="http://www.w3.org/2000/svg" viewBox="0 0 256 256" fill="currentColor"><path d="M240,203.98316h-4.00586v-100a20.0226,20.0226,0,0,0-20-20h-60v-44a20.0226,20.0226,0,0,0-20-20h-96a20.0226,20.0226,0,0,0-20,20v164H16a12,12,0,0,0,0,24H240a12,12,0,0,0,0-24Zm-28.00586-96v96h-56v-96Zm-168-64h88v160h-88Zm12,28a12.00028,12.00028,0,0,1,12-12h28a12,12,0,1,1,0,24h-28A12.00028,12.00028,0,0,1,55.99414,71.98316Zm64,64a12.00028,12.00028,0,0,1-12,12h-28a12,12,0,0,1,0-24h28A12.00028,12.00028,0,0,1,119.99414,135.98316Zm-12,40a12.00028,12.00028,0,0,1-12,12h-28a12,12,0,0,1,0-24h28A12.00028,12.00028,0,0,1,107.99414,175.98316Zm92,0a12.00028,12.00028,0,0,1-12,12h-8a12,12,0,0,1,0-24h8A12.00028,12.00028,0,0,1,199.99414,175.98316Zm-32-40a12.00028,12.00028,0,0,1,12-12h8a12,12,0,1,1,0,24h-8A12.00028,12.00028,0,0,1,167.99414,135.98316Z"/></svg>

<svg xmlns="http://www.w3.org/2000/svg" viewBox="0 0 256 256" fill="currentColor"><path d="M240,204h-4V104a20.1,20.1,0,0,0-20-20H156V40a20.1,20.1,0,0,0-20-20H40A20.1,20.1,0,0,0,20,40V204H16a12,12,0,0,0,0,24H240a12,12,0,0,0,0-24Zm-28-96v96H156V108ZM44,44h88V204H44ZM56,72A12,12,0,0,1,68,60H96a12,12,0,0,1,0,24H68A12,12,0,0,1,56,72Zm64,64a12,12,0,0,1-12,12H80a12,12,0,0,1,0-24h28A12,12,0,0,1,120,136Zm-12,40a12,12,0,0,1-12,12H68a12,12,0,0,1,0-24H96A12,12,0,0,1,108,176Zm92,0a12,12,0,0,1-12,12h-8a12,12,0,0,1,0-24h8A12,12,0,0,1,200,176Zm-32-40a12,12,0,0,1,12-12h8a12,12,0,0,1,0,24h-8A12,12,0,0,1,168,136Z"/></svg>
